svgs/sharp-regular/objects-align-center-vertical.svg

<svg xmlns="http://www.w3.org/2000/svg" viewBox="0 0 512 512"><!--! Font Awesome Pro 6.6.0 by @fontawesome - https://fontawesome.com License - https://fontawesome.com/license (Commercial License) Copyright 2024 Fonticons, Inc. --><path d="M112 80l0 352 64 0 0-352-64 0zM64 32l48 0 64 0 48 0 0 48 0 152 64 0 0-88 0-48 48 0 64 0 48 0 0 48 0 88 64 0 0 48-64 0 0 88 0 48-48 0-64 0-48 0 0-48 0-88-64 0 0 152 0 48-48 0-64 0-48 0 0-48 0-152L0 280l0-48 64 0L64 80l0-48zM336 144l0 224 64 0 0-224-64 0z"/></svg>

<svg xmlns="http://www.w3.org/2000/svg" viewBox="0 0 512 512"><!--! Font Awesome Pro 6.5.2 by @fontawesome - https://fontawesome.com License - https://fontawesome.com/license (Commercial License) Copyright 2024 Fonticons, Inc. --><path d="M112 80V432h64V80H112zM64 32h48 64 48V80 232h64V144 96h48 64 48v48 88h64v48H448v88 48H400 336 288V368 280H224V432v48H176 112 64V432 280H0V232H64V80 32zM336 144V368h64V144H336z"/></svg>
